source/img/logo-tablet.svg

<svg width="61" height="51" viewBox="0 0 61 51" fill="none" xmlns="http://www.w3.org/2000/svg">
<path d="M51.4204 19.682C49.9354 16.093 47.5438 12.9592 44.484 10.593C41.4243 8.22671 37.8031 6.71064 33.9815 6.19583C30.1599 5.68103 26.2712 6.18547 22.7031 7.65888C19.135 9.13229 16.0119 11.5232 13.6453 14.5934C11.2786 17.6636 9.75097 21.3058 9.21456 25.157C8.67815 29.0082 9.15172 32.934 10.5881 36.5432C12.0244 40.1523 14.3734 43.3186 17.4009 45.7268C20.4284 48.1349 24.0288 49.7006 27.8431 50.2679C27.3434 48.4519 26.8352 46.4447 26.3872 44.3158C27.6904 45.1685 29.062 45.9096 30.4876 46.5316C30.4876 46.5316 30.591 48.4084 30.7288 50.5025C32.2693 50.5293 33.8082 50.3924 35.3203 50.0941C35.2812 49.8758 35.2812 49.6521 35.3203 49.4337C35.5701 47.8089 36.2592 44.8806 36.3971 42.9951C37.3905 42.0577 38.2333 40.9702 38.8952 39.7714L38.8435 40.1537C38.3697 43.8553 37.3791 47.8089 36.7761 48.9037C36.5809 49.2661 36.3406 49.6019 36.0611 49.903C39.1793 49.1651 42.1011 47.752 44.6239 45.7617C47.1468 43.7713 49.2103 41.2513 50.6714 38.3764C52.1325 35.5015 52.9563 32.3404 53.0857 29.1124C53.215 25.8843 52.6468 22.6665 51.4204 19.682ZM50.1541 22.9752C49.775 23.3489 48.9911 23.6008 48.8619 22.4712C48.7327 21.3417 48.6983 20.5509 48.6983 20.5509C48.6983 20.5509 47.0357 17.5706 46.4155 17.5358C45.7952 17.501 41.3933 20.5509 40.2304 21.8804C39.2225 23.0013 39.0244 22.9231 39.0244 24.8955C39.0244 26.3814 39.2139 31.9946 39.1105 36.287L32.0899 38.1726C29.8832 38.8114 27.6391 39.3105 25.3708 39.6671L24.5093 34.6013H24.3887L22.1749 23.1577C22.1749 23.1577 18.8928 21.9064 17.6868 21.5676C17.1205 21.3177 16.4952 21.2364 15.8847 21.3334C15.2741 21.4304 14.7038 21.7016 14.2411 22.115C13.769 22.5319 13.3916 23.0465 13.1344 23.6238C12.8773 24.2011 12.7464 24.8275 12.7508 25.4603C12.9329 25.8642 13.0715 26.2866 13.1643 26.7202C13.2074 27.1373 12.1306 27.0939 11.4415 27.0939C10.7523 27.0939 10.6489 25.8426 11.1916 24.3742C11.615 23.245 12.1398 22.1573 12.7594 21.1244C13.2255 20.2018 13.8266 19.3553 14.5426 18.6133C14.5426 18.6133 14.6632 18.3178 15.6194 18.4047C16.5756 18.4916 21.8906 18.7783 21.8906 18.7783L21.9337 16.8059C27.7107 16.0013 33.5372 15.6122 39.369 15.6416C39.369 16.1716 39.369 16.7016 39.369 17.2317C41.5779 16.2149 43.9564 15.6254 46.381 15.4938C46.5107 15.4905 46.6393 15.5198 46.755 15.5789C46.8708 15.6381 46.9702 15.7253 47.0443 15.8327C47.3372 16.2064 49.1204 18.4395 49.3271 18.761C49.9062 19.5957 50.4327 20.4664 50.9035 21.3677C50.7421 21.9384 50.4889 22.4786 50.1541 22.9665V22.9752Z" fill="#FDC305"/>
<path d="M48.6363 17.8294C49.0411 18.3508 49.3943 18.8113 49.4977 18.9503C50.0768 19.7851 50.6033 20.6557 51.0741 21.5571C50.9102 22.1091 50.6601 22.6312 50.3333 23.1038C49.9543 23.4774 49.1704 23.7294 49.0411 22.5998C48.9119 21.4702 48.8602 20.7229 48.8602 20.7229C48.8602 20.7229 47.1977 17.7425 46.5775 17.7078C45.9572 17.673 41.5553 20.7229 40.3924 22.0524C39.3845 23.1733 39.1864 23.0951 39.1864 25.0675C39.1864 26.3709 39.3328 30.8458 39.2984 34.8254C40.8576 34.9992 43.149 35.4337 43.8381 36.459C43.8381 36.459 43.5883 30.2202 50.5659 33.4873C50.5659 33.4873 50.8071 24.9806 60.4378 27.1616C57.1639 23.2844 53.1505 20.1107 48.6363 17.8294Z" fill="#F06351"/>
<path d="M39.5654 15.8135C39.6005 10.9987 39.1968 6.1907 38.3594 1.45035C38.3594 1.45035 38.2302 0.320754 37.61 1.24181C37.0982 2.34291 36.7499 3.51402 36.5763 4.71747C32.8938 4.47914 29.1975 4.57802 25.5328 5.0129C24.8264 2.62338 23.6204 1.53724 23.0432 1.82398C22.4661 2.11072 22.3972 4.67403 22.3972 4.67403L22.1129 16.9779C27.8956 16.1725 33.7279 15.7834 39.5654 15.8135Z" fill="#F06351"/>
<path d="M39.0651 39.9434C39.1771 39.0136 39.2374 37.7798 39.2719 36.4156L32.2516 38.3011C30.0459 38.9546 27.8019 39.4682 25.5327 39.8391L26.4889 44.1837C26.4889 44.2793 26.4889 44.3748 26.5492 44.4704C27.8522 45.3231 29.2238 46.0642 30.6494 46.6861C32.7328 45.6815 34.7171 44.4799 36.5757 43.0975V43.1497C37.5647 42.217 38.4044 41.1354 39.0651 39.9434Z" fill="#E55645"/>
<path d="M27.5657 13.0938C27.5227 13.0069 28.4271 13.6847 28.7803 13.8932C29.1334 14.1018 29.3057 14.2582 29.3057 14.4059C29.3057 14.5536 29.0818 14.7013 28.7717 14.7013C28.4616 14.7013 27.9792 14.5971 27.9103 14.4754C27.8414 14.3538 28.4271 14.4754 28.72 14.4754H28.9698C28.4395 14.084 27.9667 13.6189 27.5657 13.0938Z" fill="black"/>
<path d="M34.0264 13.1894C34.0264 13.1894 33.165 14.3016 33.0875 14.3538C33.0099 14.4059 32.941 14.6492 33.2511 14.6057C33.6071 14.5521 33.9585 14.4708 34.302 14.3624C34.3968 14.3103 34.3623 14.1887 34.1986 14.206C34.035 14.2234 33.6129 14.2495 33.3373 14.3016L34.0694 13.1981C34.0694 13.1981 34.0953 13.0938 34.0264 13.1894Z" fill="black"/>
<path d="M31.3215 18.4985C31.7208 18.321 32.0508 18.0156 32.2604 17.6296C32.5016 17.0561 32.2604 16.8389 31.8814 16.7607C31.36 16.6647 30.8218 16.7702 30.374 17.0561C30.038 17.3776 30.0811 17.6904 30.374 17.925C30.6649 18.1552 30.9832 18.3478 31.3215 18.4985Z" fill="black"/>
<path d="M31.0113 19.5933C30.9124 19.7904 30.778 19.9672 30.615 20.1147C30.3697 20.3138 30.0682 20.4294 29.7537 20.4449C29.2794 20.4918 28.8052 20.3552 28.4271 20.0625C28.2535 19.9601 28.099 19.8278 27.9706 19.6715C27.8844 19.5769 27.7785 19.5027 27.6605 19.4543C27.6605 19.4543 28.3065 23.0255 29.8743 23.599C31.442 24.1725 31.7348 22.9387 31.7779 22.6085C31.8304 21.6196 31.5841 20.6379 31.0716 19.7932C31.0716 19.5325 31.0544 19.7063 31.0113 19.5933Z" fill="#F06351"/>
<path d="M29.5469 20.5839C29.1438 20.5254 28.7566 20.3852 28.4087 20.1716C28.0608 19.9581 27.7594 19.6756 27.5226 19.3413C27.5015 19.3174 27.4897 19.2865 27.4897 19.2544C27.4897 19.2224 27.5015 19.1915 27.5226 19.1676C27.5339 19.156 27.5473 19.1468 27.5621 19.1405C27.5769 19.1343 27.5927 19.131 27.6088 19.131C27.6248 19.131 27.6407 19.1343 27.6555 19.1405C27.6703 19.1468 27.6837 19.156 27.6949 19.1676C27.9081 19.4692 28.1785 19.7252 28.4905 19.9206C28.8025 20.116 29.1499 20.2469 29.5124 20.3058C29.7993 20.2841 30.0769 20.194 30.3225 20.0429C30.5681 19.8919 30.7746 19.6842 30.9251 19.4369L31.0457 19.2718L31.1319 19.463C31.1319 19.463 31.4592 20.1234 31.9932 20.1581C32.5273 20.1929 32.9063 19.7932 33.3973 19.0372C33.4156 19.0096 33.444 18.9904 33.4763 18.9838C33.5086 18.9773 33.5422 18.984 33.5696 19.0025C33.597 19.0209 33.616 19.0496 33.6225 19.0822C33.629 19.1147 33.6223 19.1486 33.604 19.1762C33.0298 20.0278 32.4871 20.4362 31.976 20.4014C31.7785 20.375 31.5893 20.3043 31.4224 20.1946C31.2554 20.0848 31.115 19.9388 31.0113 19.7671C30.8427 20.0045 30.6238 20.201 30.3705 20.3423C30.1172 20.4836 29.8358 20.5661 29.5469 20.5839Z" fill="black"/>
<path d="M31.2353 32.2795C33.0192 32.2795 34.4655 30.8207 34.4655 29.0211C34.4655 27.2215 33.0192 25.7626 31.2353 25.7626C29.4513 25.7626 28.0051 27.2215 28.0051 29.0211C28.0051 30.8207 29.4513 32.2795 31.2353 32.2795Z" fill="#FDC305"/>
<path d="M35.5163 26.3709L32.8202 27.5092L33.8108 22.6172L27.3504 31.0978L30.0465 29.9595L29.0559 34.8602L35.5163 26.3709ZM29.1507 29.6988L32.734 24.998L32.0363 28.4737L33.7591 27.7611L30.1499 32.4707L30.8476 28.995L29.1507 29.6988Z" fill="#111111"/>
<path d="M27.9447 28.4215C28.4775 28.4215 28.9095 27.9858 28.9095 27.4483C28.9095 26.9109 28.4775 26.4751 27.9447 26.4751C27.4119 26.4751 26.9799 26.9109 26.9799 27.4483C26.9799 27.9858 27.4119 28.4215 27.9447 28.4215Z" fill="#111111"/>
<path d="M33.5612 31.9493C33.9371 31.9493 34.2417 31.642 34.2417 31.2629C34.2417 30.8838 33.9371 30.5764 33.5612 30.5764C33.1854 30.5764 32.8807 30.8838 32.8807 31.2629C32.8807 31.642 33.1854 31.9493 33.5612 31.9493Z" fill="#111111"/>
<path d="M34.3882 30.0638C34.5547 30.0638 34.6897 29.9276 34.6897 29.7597C34.6897 29.5917 34.5547 29.4555 34.3882 29.4555C34.2217 29.4555 34.0867 29.5917 34.0867 29.7597C34.0867 29.9276 34.2217 30.0638 34.3882 30.0638Z" fill="#111111"/>
<path d="M39.5224 17.3863C37.9674 18.8002 36.5029 20.3123 35.1377 21.9133C33.7778 23.5028 32.2433 24.9312 30.5635 26.171C30.374 25.7105 29.1594 24.8503 29.1594 24.8503C29.1594 24.8503 26.4545 22.9821 24.6799 21.5136C23.7207 20.7077 22.8169 19.8368 21.9751 18.9069L20.2522 18.8113C22.7392 22.4757 26.3826 25.183 30.5893 26.4925C31.3302 26.3709 33.4148 24.8677 34.974 23.6425C36.8187 22.0601 38.5461 20.3437 40.1426 18.5072C40.5717 17.9928 40.9044 17.4039 41.1246 16.7693C40.1426 17.0995 39.5224 17.3863 39.5224 17.3863Z" fill="#F06351"/>
<path d="M22.3368 23.3297C22.3368 23.3297 19.0548 22.0784 17.8488 21.7396C17.2825 21.4897 16.6572 21.4084 16.0466 21.5054C15.4361 21.6024 14.8658 21.8736 14.4031 22.287C13.931 22.7039 13.5536 23.2185 13.2964 23.7958C13.0393 24.373 12.9084 24.9994 12.9128 25.6323C13.0949 26.0362 13.2335 26.4585 13.3263 26.8922C13.3694 27.3093 12.2926 27.2659 11.6034 27.2659C10.9143 27.2659 10.8109 26.0146 11.3536 24.5462C11.777 23.417 12.3018 22.3292 12.9214 21.2964C8.22664 23.7641 0 29.4642 0 29.4642C2.35316 29.3211 4.71429 29.3909 7.0551 29.6728C11.5776 30.1333 11.3622 33.7306 11.3622 33.7306C12.9529 33.2883 14.574 32.9659 16.2121 32.7661C18.0383 32.6445 18.1675 34.6082 18.1675 34.6082L18.6241 37.9622C19.3173 37.2057 20.0819 36.5189 20.9069 35.9116C21.9703 35.0529 23.3243 34.6476 24.6799 34.782L22.3368 23.3297Z" fill="#F06351"/>
</svg>

<svg width="61" height="51" fill="none" xmlns="http://www.w3.org/2000/svg"><path d="M51.42 19.68a22.23 22.23 0 00-6.94-9.09 21.96 21.96 0 00-30.83 4 22.35 22.35 0 00-3.06 21.95 22.24 22.24 0 006.81 9.19 21.97 21.97 0 0010.44 4.54c-.5-1.82-1-3.83-1.45-5.95 1.3.85 2.67 1.59 4.1 2.21 0 0 .1 1.88.24 3.97 1.54.03 3.08-.1 4.59-.4a1.87 1.87 0 010-.67c.25-1.62.94-4.55 1.08-6.43 1-.94 1.83-2.03 2.5-3.23l-.06.38c-.47 3.7-1.46 7.66-2.06 8.75-.2.37-.44.7-.72 1a22 22 0 0014.61-11.52 22.43 22.43 0 00.75-18.7zm-1.27 3.3c-.38.37-1.16.62-1.29-.5-.13-1.14-.16-1.93-.16-1.93s-1.66-2.98-2.28-3.01c-.62-.04-5.03 3.01-6.19 4.34-1 1.12-1.2 1.04-1.2 3.02 0 1.48.18 7.1.08 11.39l-7.02 1.88c-2.2.64-4.45 1.14-6.72 1.5l-.86-5.07h-.12l-2.22-11.44s-3.28-1.25-4.48-1.6a3.21 3.21 0 00-3.45.55 4.4 4.4 0 00-1.49 3.35c.18.4.32.83.41 1.26.05.42-1.03.37-1.72.37s-.8-1.25-.25-2.72a19.9 19.9 0 011.57-3.25c.47-.92 1.07-1.76 1.78-2.5 0 0 .12-.3 1.08-.22.96.1 6.27.38 6.27.38l.04-1.97c5.78-.8 11.6-1.2 17.44-1.17v1.6c2.2-1.03 4.59-1.61 7.01-1.75a.78.78 0 01.66.34c.3.38 2.08 2.6 2.29 2.93.58.84 1.1 1.7 1.57 2.6a5.44 5.44 0 01-.75 1.6v.02z" fill="#FDC305"/><path d="M48.64 17.83l.86 1.12c.58.84 1.1 1.7 1.57 2.6a5.44 5.44 0 01-.74 1.55c-.38.38-1.16.63-1.29-.5-.13-1.13-.18-1.88-.18-1.88s-1.66-2.98-2.28-3.01c-.62-.04-5.02 3.01-6.19 4.34-1 1.12-1.2 1.05-1.2 3.02 0 1.3.14 5.78.1 9.76 1.57.17 3.86.6 4.55 1.63 0 0-.25-6.24 6.73-2.97 0 0 .24-8.5 9.87-6.33a37.71 37.71 0 00-11.8-9.33zM39.57 15.81C39.6 11 39.2 6.2 38.36 1.45c0 0-.13-1.13-.75-.2-.51 1.1-.86 2.26-1.03 3.47a60.54 60.54 0 00-11.05.3c-.7-2.4-1.91-3.48-2.49-3.2-.57.3-.64 2.85-.64 2.85l-.29 12.3c5.79-.8 11.62-1.19 17.46-1.16z" fill="#F06351"/><path d="M39.07 39.94c.1-.93.17-2.16.2-3.52l-7.02 1.88c-2.2.65-4.45 1.17-6.72 1.54l.96 4.34c0 .1 0 .2.06.29 1.3.85 2.67 1.6 4.1 2.22 2.08-1 4.07-2.21 5.93-3.6v.06a13.2 13.2 0 002.49-3.2z" fill="#E55645"/><path d="M27.57 13.1c-.05-.1.86.58 1.21.8.35.2.53.36.53.5 0 .15-.23.3-.54.3-.3 0-.8-.1-.86-.22-.07-.13.52 0 .81 0h.25c-.53-.4-1-.86-1.4-1.39zM34.03 13.19s-.87 1.11-.94 1.16c-.08.06-.15.3.16.26.36-.06.7-.14 1.05-.25.1-.05.06-.17-.1-.15-.17.01-.59.04-.86.1l.73-1.11s.03-.1-.04-.01zM31.32 18.5c.4-.18.73-.48.94-.87.24-.57 0-.8-.38-.87a2.1 2.1 0 00-1.5.3c-.34.32-.3.63 0 .87.28.23.6.42.94.57z" fill="#000"/><path d="M31.01 19.6a1.48 1.48 0 01-1.26.85c-.47.04-.94-.1-1.32-.39-.18-.1-.33-.23-.46-.39a.86.86 0 00-.3-.22c-.01 0 .64 3.58 2.2 4.15 1.57.57 1.86-.66 1.9-1 .06-.98-.19-1.96-.7-2.8 0-.27-.02-.1-.06-.2z" fill="#F06351"/><path d="M29.55 20.58a3 3 0 01-2.03-1.24.13.13 0 010-.17.12.12 0 01.09-.04.12.12 0 01.08.04 2.78 2.78 0 001.82 1.14 1.8 1.8 0 001.42-.87l.12-.17.08.2s.33.65.86.69c.54.03.92-.37 1.4-1.12a.12.12 0 01.17-.03.13.13 0 01.04.17c-.57.85-1.11 1.26-1.62 1.22a1.33 1.33 0 01-.97-.63 1.95 1.95 0 01-1.46.81z" fill="#000"/><path d="M31.24 32.28a3.24 3.24 0 003.23-3.26c0-1.8-1.45-3.26-3.23-3.26A3.24 3.24 0 0028 29.02c0 1.8 1.44 3.26 3.23 3.26z" fill="#FDC305"/><path d="M35.52 26.37l-2.7 1.14 1-4.9-6.47 8.49 2.7-1.14-1 4.9 6.47-8.49zm-6.37 3.33l3.58-4.7-.7 3.47 1.73-.7-3.61 4.7.7-3.47-1.7.7zM27.94 28.42c.54 0 .97-.43.97-.97a.97.97 0 00-.97-.97.97.97 0 00-.96.97c0 .54.43.97.96.97zM33.56 31.95c.38 0 .68-.3.68-.69 0-.38-.3-.68-.68-.68a.68.68 0 000 1.37zM34.39 30.06a.3.3 0 00.3-.3.3.3 0 00-.3-.3.3.3 0 00-.3.3c0 .17.13.3.3.3z" fill="#111"/><path d="M39.52 17.39a49.73 49.73 0 00-4.38 4.52 27.56 27.56 0 01-4.58 4.26c-.19-.46-1.4-1.32-1.4-1.32s-2.7-1.87-4.48-3.34c-.96-.8-1.86-1.67-2.7-2.6l-1.73-.1A19.5 19.5 0 0030.6 26.5c.74-.12 2.82-1.62 4.38-2.85a49.89 49.89 0 005.17-5.13c.43-.52.76-1.1.98-1.74-.98.33-1.6.62-1.6.62zM22.34 23.33s-3.29-1.25-4.5-1.59a3.21 3.21 0 00-3.44.55 4.4 4.4 0 00-1.49 3.34c.18.4.32.83.42 1.26.04.42-1.04.38-1.73.38s-.79-1.26-.25-2.72a19.9 19.9 0 011.57-3.25C8.22 23.76 0 29.46 0 29.46c2.35-.14 4.71-.07 7.06.21 4.52.46 4.3 4.06 4.3 4.06 1.6-.44 3.21-.76 4.85-.96 1.83-.13 1.96 1.84 1.96 1.84l.45 3.35a15.8 15.8 0 012.29-2.05 5.19 5.19 0 013.77-1.13l-2.34-11.45z" fill="#F06351"/></svg>
